public/img/assets/icons/weather-conditions/rain-snow-showers-night.svg

<svg width="120" height="120" viewBox="0 0 120 120" fill="none" xmlns="http://www.w3.org/2000/svg">
<path fill-rule="evenodd" clip-rule="evenodd" d="M59 13.7364C66.4272 17.6849 71.4844 25.5019 71.4844 34.5C71.4844 43.4981 66.4272 51.3151 59 55.2636C62.2856 57.0103 66.035 58 70.0156 58C82.9943 58 93.5156 47.4787 93.5156 34.5C93.5156 21.5213 82.9943 11 70.0156 11C66.035 11 62.2856 11.9897 59 13.7364Z" fill="#D580FF"/>
<path d="M84.1875 45.6C84.0949 45.6 84.0178 45.6306 83.9406 45.6306C84.1103 44.8344 84.1875 44.0075 84.1875 43.15C84.1875 36.3819 78.6637 30.9 71.8438 30.9C68.048 30.9 64.6998 32.6303 62.4316 35.31C59.5617 29.7975 53.8373 26 47.1563 26C37.6053 26 29.875 33.6716 29.875 43.15C29.875 44.2678 29.9984 45.3397 30.199 46.3963C24.2895 48.3256 20 53.7922 20 60.3C20 68.4156 26.6348 75 34.8125 75H84.1875C92.3652 75 99 68.4156 99 60.3C99 52.1844 92.3652 45.6 84.1875 45.6Z" fill="#FF99FF"/>
<rect x="43.5853" y="68" width="3.51214" height="15" rx="1" fill="#D580FF"/>
<rect width="3.5251" height="14.945" rx="1" transform="matrix(0.498161 -0.867085 0.86496 0.501841 38 73.2783)" fill="#D580FF"/>
<rect width="3.5251" height="14.945" rx="1" transform="matrix(-0.498161 -0.867085 -0.86496 0.501841 53 72.8213)" fill="#D580FF"/>
<rect x="71.5853" y="68" width="3.51214" height="15" rx="1" fill="#D580FF"/>
<rect width="3.5251" height="14.945" rx="1" transform="matrix(0.498161 -0.867085 0.86496 0.501841 66 73.2783)" fill="#D580FF"/>
<rect width="3.5251" height="14.945" rx="1" transform="matrix(-0.498161 -0.867085 -0.86496 0.501841 81 72.8213)" fill="#D580FF"/>
<rect x="57.5853" y="83" width="3.51214" height="15" rx="1" fill="#D580FF"/>
<rect width="3.5251" height="14.945" rx="1" transform="matrix(0.498161 -0.867085 0.86496 0.501841 52 88.2783)" fill="#D580FF"/>
<rect width="3.5251" height="14.945" rx="1" transform="matrix(-0.498161 -0.867085 -0.86496 0.501841 67 87.8213)" fill="#D580FF"/>
<path fill-rule="evenodd" clip-rule="evenodd" d="M49.1803 75.1308L53.0207 72.9136L51.272 69.8847L47.143 72.2686V68.136H43.6456V72.5392L39.8323 70.3376L38.0836 73.3664L41.1396 75.1308H49.1803Z" fill="#9966FF"/>
<path fill-rule="evenodd" clip-rule="evenodd" d="M77.1596 75.1308L81 72.9136L79.2513 69.8847L75.1222 72.2686V68.136H71.6248V72.5392L67.8116 70.3376L66.0629 73.3664L69.1189 75.1308H77.1596Z" fill="#9966FF"/>
<path fill-rule="evenodd" clip-rule="evenodd" d="M90.0462 46.7956C88.2491 46.0263 86.2682 45.6 84.1875 45.6C84.1391 45.6 84.0949 45.6084 84.0528 45.6164C84.0143 45.6236 83.9774 45.6306 83.9406 45.6306C84.1104 44.8344 84.1875 44.0075 84.1875 43.15C84.1875 36.3819 78.6637 30.9 71.8438 30.9C71.632 30.9 71.4217 30.9054 71.2128 30.916C71.3916 32.0846 71.4844 33.2814 71.4844 34.5C71.4844 43.4981 66.4272 51.315 59 55.2635C62.2856 57.0103 66.035 58 70.0156 58C78.4868 58 85.911 53.5178 90.0462 46.7956Z" fill="#9966FF"/>
<path d="M47.2308 94.6484C45.8769 99.2726 43 100.522 43 103.782C43 106.667 45.274 109 48.0769 109C50.8798 109 53.1538 106.667 53.1538 103.782C53.1538 100.512 50.2769 99.2934 48.9231 94.6484C48.6904 93.8048 47.4952 93.7632 47.2308 94.6484Z" fill="#D580FF"/>
<path d="M69.2308 94.6484C67.8769 99.2726 65 100.522 65 103.782C65 106.667 67.274 109 70.0769 109C72.8798 109 75.1538 106.667 75.1538 103.782C75.1538 100.512 72.2769 99.2934 70.9231 94.6484C70.6904 93.8048 69.4952 93.7632 69.2308 94.6484Z" fill="#D580FF"/>
</svg>

<svg width="120" height="120" fill="none" xmlns="http://www.w3.org/2000/svg"><path fill-rule="evenodd" clip-rule="evenodd" d="M59 13.736c7.427 3.949 12.484 11.766 12.484 20.764S66.427 51.315 59 55.264A23.397 23.397 0 0 0 70.016 58c12.978 0 23.5-10.521 23.5-23.5S82.994 11 70.016 11c-3.981 0-7.73.99-11.016 2.736Z" fill="#D580FF"/><path d="M84.188 45.6c-.093 0-.17.03-.247.03.17-.796.246-1.623.246-2.48 0-6.768-5.523-12.25-12.343-12.25-3.796 0-7.144 1.73-9.412 4.41-2.87-5.513-8.595-9.31-15.276-9.31-9.55 0-17.281 7.672-17.281 17.15 0 1.118.123 2.19.324 3.246C24.289 48.326 20 53.792 20 60.3 20 68.416 26.635 75 34.813 75h49.374C92.365 75 99 68.416 99 60.3s-6.635-14.7-14.813-14.7Z" fill="#F9F"/><rect x="43.585" y="68" width="3.512" height="15" rx="1" fill="#D580FF"/><rect width="3.525" height="14.945" rx="1" transform="matrix(.49816 -.86708 .86496 .50184 38 73.278)" fill="#D580FF"/><rect width="3.525" height="14.945" rx="1" transform="matrix(-.49816 -.86708 -.86496 .50184 53 72.821)" fill="#D580FF"/><rect x="71.585" y="68" width="3.512" height="15" rx="1" fill="#D580FF"/><rect width="3.525" height="14.945" rx="1" transform="matrix(.49816 -.86708 .86496 .50184 66 73.278)" fill="#D580FF"/><rect width="3.525" height="14.945" rx="1" transform="matrix(-.49816 -.86708 -.86496 .50184 81 72.821)" fill="#D580FF"/><rect x="57.585" y="83" width="3.512" height="15" rx="1" fill="#D580FF"/><rect width="3.525" height="14.945" rx="1" transform="matrix(.49816 -.86708 .86496 .50184 52 88.278)" fill="#D580FF"/><rect width="3.525" height="14.945" rx="1" transform="matrix(-.49816 -.86708 -.86496 .50184 67 87.821)" fill="#D580FF"/><path fill-rule="evenodd" clip-rule="evenodd" d="m49.18 75.13 3.84-2.216-1.748-3.03-4.129 2.385v-4.133h-3.497v4.403l-3.814-2.201-1.748 3.028 3.056 1.765h8.04ZM77.16 75.13 81 72.915l-1.749-3.03-4.129 2.385v-4.133h-3.497v4.403l-3.813-2.201-1.75 3.028 3.057 1.765h8.04ZM90.046 46.796a14.853 14.853 0 0 0-5.859-1.196c-.048 0-.092.008-.134.016-.039.008-.076.015-.112.015.17-.797.246-1.623.246-2.481 0-6.768-5.523-12.25-12.343-12.25-.212 0-.422.005-.631.016.179 1.169.271 2.365.271 3.584 0 8.998-5.057 16.815-12.484 20.764A23.396 23.396 0 0 0 70.016 58c8.47 0 15.895-4.482 20.03-11.204Z" fill="#96F"/><path d="M47.23 94.648c-1.353 4.625-4.23 5.874-4.23 9.134 0 2.885 2.274 5.218 5.077 5.218s5.077-2.333 5.077-5.218c0-3.27-2.877-4.489-4.23-9.134-.234-.843-1.429-.885-1.693 0ZM69.23 94.648c-1.353 4.625-4.23 5.874-4.23 9.134 0 2.885 2.274 5.218 5.077 5.218s5.077-2.333 5.077-5.218c0-3.27-2.877-4.489-4.23-9.134-.234-.843-1.429-.885-1.693 0Z" fill="#D580FF"/></svg>
